X:1
T:Renew Your Church
T:Renew Your Church
T:The Sacred Harp, 1844
T:Kenneth Lorne Cober, 1960, alt.
T:Public Domain Courtesy of the Cyber Hymnal™
T:Public Domain Courtesy of the Cyber Hymnal™
C:The Sacred Harp, 1844
Z:Public Domain
Z:Courtesy of the Cyber Hymnal™
%%score ( 1 2 ) ( 3 4 )
L:1/8
Q:1/4=100
M:4/4
K:G
V:1 treble 
V:2 treble 
V:3 bass 
V:4 bass 
V:1
 [DG]2 [DG]>[DA] [GB]3 [DG] | [DF][DG] [DA][DB] [Ec]4 | [DB]>[DG] [EA]4 | [DG]>[DF] [DG]4 | %4
w: 1.~Re- new Your church, our|min- is- tries re- store:|Both to serve|and a- dore.|
w: 2.~Teach us Your Word, re-|veal its truth di- vine,|On our path|let it shine;|
w: 3.~Teach us to pray, for|You are ev- er near,|Your still voice|let us hear.|
w: 4.~Teach us to love, with|strength of heart and mind,|Each and all,|hu- man- kind;|
 [DG]2 [DG]>[DA] [GB]3 [DG] | [DF][DG] [DA][DB] [Ec]4 | [DB]>[DG] [EA]4 | [DG]>[DF] [DG]4 (Bc) | %8
w: Make us a- gain as|salt through- out the land,|And as light|from a stand. ’Mid *|
w: Tell of Your works, Your|migh- ty acts of grace,|From each page|show Your face. As *|
w: Our souls are rest- less|till they rest in You,|This the goal|we pur- sue. Be- *|
w: Break down old walls of|pre- ju- dice and hate,|Leave us not|to our fate. As *|
 [Gd][Gd] ([Gd]2 [Fc])[GB] | [Fc][Fc] ([Fc]2 [GB])[FA] | [GB][Gc] (d2 c)[DB] | %11
w: som- ber sha- * dows|of the night, * Where|greed and hat- * reds|
w: You have loved * us,|sent Your Son, * And|our sal- va- * tion|
w: fore Your pres- * ence|keep us still * That|we may find * for|
w: you have loved * and|giv’n Your life * To|end hos- til- * i-|
 [FA][FA] [FA]3 D [DG][DF] [DG]3 [DA] | [DB][Dc] [Dd]4 | [DB]>[DG] [EA]4 | [DG]>[DF] [DG]4 |] %15
w: spread their blight, O send us forth with|power en- dued,|Help us, Lord,|be re- newed.|
w: now is won, O let our hearts with|love be stirred,|Help us, Lord,|know Your Word.|
w: us Yyour will, And seek Your guid- ance|ev- ery day,|Teach us, Lord,|how to pray.|
w: ty and strife, O share Your grace from|Heav’n a- bove,|Teach us, Lord,|how to love.|
V:2
 x8 | x8 | x6 | x6 | x8 | x8 | x6 | x6 G2 | x6 | x6 | x2 G3 x | x5 D x6 | x6 | x6 | x6 |] %15
V:3
 [G,B,]2 [G,B,]>[F,D] [G,D]3 [G,B,] | [A,C][G,B,] [F,A,] G, [C,G,]4 | [G,,G,]>[B,,G,] (G,2 C2) | %3
 [D,B,]>[D,A,] [G,,B,]4 | [G,B,]2 [G,B,]>[F,D] [G,D]3 [G,B,] | [A,C][G,B,] [F,A,] G, [C,G,]4 | %6
 [G,,G,]>[B,,G,] (G,2 C2) | [D,B,]>[D,A,] [G,,B,]4 (G,A,) | [B,D][B,D] D3 [G,D] | %9
 [A,D][A,D] D3 [D,D] | [G,D][A,D] D3 [G,D] | %11
 [D,D][D,D] [D,D]3 [C,F,] [B,,G,][A,,A,] [G,,B,]3 [D,F,] | G,[G,A,] [G,B,]4 | G,>[G,B,] [C,C]4 | %14
 [D,B,]>[D,A,] [G,,B,]4 |] %15
V:4
 x8 | x3 G, x4 | x2 C,4 | x6 | x8 | x3 G, x4 | x2 C,4 | x6 G,2 | x2 (B,2 A,) x | x2 (A,2 G,) x | %10
 x2 (B,2 A,) x | x12 | G, x5 | G,3/2 x9/2 | x6 |] %15

